images/icon-data-security.svg

<svg width="50" height="50" viewBox="0 0 50 50" fill="none" xmlns="http://www.w3.org/2000/svg">
<path d="M45.8167 23.3333C45.8167 36.7694 29.2917 47.5889 25.675 49.7917C25.4736 49.9209 25.2393 49.9896 25 49.9896C24.7607 49.9896 24.5264 49.9209 24.325 49.7917C20.7139 47.6167 4.18335 36.7972 4.18335 23.3333V7.175C4.18327 6.83645 4.31583 6.51134 4.55261 6.26937C4.78939 6.0274 5.11155 5.88782 5.45002 5.88056C18.3334 5.55556 15.3556 0 25 0C34.6445 0 31.6667 5.55556 44.55 5.88056C44.8885 5.88782 45.2106 6.0274 45.4474 6.26937C45.6842 6.51134 45.8168 6.83645 45.8167 7.175V23.3333Z" fill="#1E73BE"/>
<path d="M42.9194 23.5553C42.9194 35.1359 28.6944 44.4248 25.5778 46.2998C25.4034 46.4063 25.203 46.4627 24.9986 46.4627C24.7943 46.4627 24.5939 46.4063 24.4194 46.2998C21.3056 44.4248 7.08056 35.1359 7.08056 23.5553V9.772C7.05502 9.62589 7.05856 9.47617 7.09097 9.33143C7.12338 9.18668 7.18403 9.04975 7.26943 8.92848C7.35484 8.80721 7.46333 8.70397 7.5887 8.62469C7.71406 8.54541 7.85383 8.49164 8 8.46645C8.06049 8.45539 8.12185 8.44981 8.18334 8.44978C19.2639 8.25534 16.7278 3.51367 25 3.51367C33.2722 3.51367 30.7333 8.25534 41.8167 8.44978C42.1098 8.45478 42.3895 8.57345 42.5968 8.78075C42.8041 8.98805 42.9228 9.26777 42.9278 9.56089L42.9194 23.5553Z" fill="url(#paint0_linear_131_296)"/>
<path d="M34.3888 19.4888V30.411L25.0277 35.9277V24.9499L34.3888 19.4888Z" fill="#50E6FF"/>
<path d="M34.3889 19.4888L25.0278 25.0055L15.6111 19.4888L25.0278 13.9722L34.3889 19.4888Z" fill="#C3F1FF"/>
<path d="M25.0278 25.0054V35.9277L15.6111 30.411V19.4888L25.0278 25.0054Z" fill="#9CEBFF"/>
<path d="M15.6111 30.4108L25.0278 24.9497V35.9275L15.6111 30.4108Z" fill="#C3F1FF"/>
<path d="M34.3888 30.4108L25.0277 24.9497V35.9275L34.3888 30.4108Z" fill="#9CEBFF"/>
<defs>
<linearGradient id="paint0_linear_131_296" x1="24.9997" y1="3.49653" x2="24.9997" y2="46.4517" gradientUnits="userSpaceOnUse">
<stop offset="0.225" stop-color="#5EA0EF"/>
<stop offset="1" stop-color="#1E73BE"/>
</linearGradient>
</defs>
</svg>

<svg xmlns="http://www.w3.org/2000/svg" width="50" height="50" fill="none" viewBox="0 0 50 50"><path fill="#1e73be" d="M45.817 23.333c0 13.436-16.525 24.256-20.142 26.459a1.25 1.25 0 0 1-1.35 0C20.714 47.617 4.183 36.797 4.183 23.333V7.175A1.294 1.294 0 0 1 5.45 5.881C18.333 5.556 15.356 0 25 0s6.667 5.556 19.55 5.88a1.294 1.294 0 0 1 1.267 1.295z"/><path fill="url(#a)" d="M42.92 23.555c0 11.58-14.226 20.87-17.342 22.745a1.11 1.11 0 0 1-1.159 0C21.306 44.425 7.081 35.136 7.081 23.555V9.772A1.128 1.128 0 0 1 8.183 8.45C19.263 8.255 16.728 3.514 25 3.514s5.733 4.741 16.817 4.936a1.13 1.13 0 0 1 1.11 1.11z"/><path fill="#50e6ff" d="M34.389 19.489V30.41l-9.361 5.517V24.95z"/><path fill="#c3f1ff" d="m34.389 19.489-9.361 5.517-9.417-5.517 9.417-5.517z"/><path fill="#9cebff" d="M25.028 25.005v10.923L15.61 30.41V19.489z"/><path fill="#c3f1ff" d="m15.611 30.41 9.417-5.46v10.978z"/><path fill="#9cebff" d="m34.389 30.41-9.361-5.46v10.978z"/><defs><linearGradient id="a" x1="25" x2="25" y1="3.497" y2="46.452" gradientUnits="userSpaceOnUse"><stop offset=".225" stop-color="#5ea0ef"/><stop offset="1" stop-color="#1e73be"/></linearGradient></defs></svg>
